!!!COM:	Martini, Johannes
!!!CDT:	~1440///-~1497//
!!!OPR:	Missa Dio te salvi Gotterello
!!!ONM:	1
!!!OTL:	Kyrie
!!!AGN:	Mass; Kyrie
!!!SCT:	Mar1004a
!!!SCA:	Mar1004a
!!!voices:	4
!!!voices-OPR:	4
**kern	**kern	**kern	**kern
*staff4	*staff3	*staff2	*staff1
*Ivox	*Ivox	*Ivox	*Ivox
*I"Bassus	*I"Tenor	*I"Contra	*I"Superius
*I'B	*I'T	*I'C	*I'S
*>[A,B,C]	*>[A,B,C]	*>[A,B,C]	*>[A,B,C]
*>A	*>A	*>A	*>A
*clefF4	*clefGv2	*clefGv2	*clefG2
*k[]	*k[]	*k[]	*k[]
*M2/1	*M2/1	*M2/1	*M2/1
*met(C)	*met(C)	*met(C)	*met(C)
!!section: Kyrie I
!!!OMD: Kyrie I
=1-	=1-	=1-	=1-
1A	0r	1A	1.a
2F\	.	2c\	.
2F\	.	2A/	2a/
=2	=2	=2	=2
1G	1r	2.B\	2g/
.	.	.	4f/
.	.	4c\	4e/
1D	2A/	1d	1f
.	2A/	.	.
=3	=3	=3	=3
2E\	2G/	2B\	2e/
2C/	2E/	2c\	1e
1D	1F	2.A/	.
.	.	.	2d/
.	.	4B\	.
=4	=4	=4	=4
2C/	1E	4c\	1e
.	.	4d\	.
2AA/	.	2e\	.
1BB	2G/	2d\	1r
.	2G/	2g\	.
=5	=5	=5	=5
1AA	2A/	2f\	1r
.	4G/	1d	.
.	4F/	.	.
2r	1E	.	2g/
2E\	.	2c\	2g/
=6	=6	=6	=6
2F\	1D	2d\	2a/
4E\	.	2A/	4g/
4D\	.	.	4f/
2C/	1G	2c\	2e/
2GG/	.	2B\	2d/
=7	=7	=7	=7
2D\	2F/	2A/	2f/
1C	2G/	2.c\	1e
.	2A/	.	.
.	.	4B\	.
2D\	2F/	[2A/	[2d/
=8	=8	=8	=8
1AA	1E	2A/]	2d/]
.	.	2A/	2c#i/
1D	2D/	2F/	1d
.	2r	[2B-i\	.
=9	=9	=9	=9
2C/	1r	4B-\]	0r
.	.	4A/	.
2AA/	.	1A	.
1BB-i	1d	.	.
.	.	2G/	.
=10	=10	=10	=10
1AA	2c\	1A	1r
.	2A/	.	.
1GG	1B-i	2r	1dd
.	.	2d\	.
=11	=11	=11	=11
2r	1A	2e\	2cc\
2D\	.	2f\	2a/
1G	2r	1d	1b-i
.	[2d\	.	.
=12	=12	=12	=12
1F	2d\]	1f	1a
.	2c\	.	.
2G\	2B\	2d\	2g/
2F\	2A/	[2f\	2a/
=13	=13	=13	=13
2D\	2d\	2f\]	2b\
1A	2e\	2e\	1cc
.	2c\	2f\	.
[2G\	[2d\	[2g\	[2b\
=14	=14	=14	=14
2G\]	2d\]	2g\]	2b\]
2A\	2c\	2e\	1a
1E	1B	[1el	.
.	.	.	2g#i/
=15	=15	=15	=15
0AAl	0Al	0e]	0al
!!LO:LB:i:g=z
=16||	=16||	=16||	=16||
*>B	*>B	*>B	*>B
*clefF4	*clefGv2	*clefGv2	*clefG2
*k[]	*k[]	*k[]	*k[]
*M3/1	*M3/1	*M3/1	*M3/1
*met(C3)	*met(C3)	*met(C3)	*met(C3)
!!section: Christe
!!!OMD: Christe
1A	0.r	1c	0.r
2A\	.	2c\	.
1G	.	2d\	.
.	.	2e\	.
2E\	.	2g\	.
=17	=17	=17	=17
1F	0.r	2f\	1a
.	.	2.d\	.
2F\	.	.	2a/
.	.	4c\	.
1E	.	1e	1g
2C/	.	2e\	2e/
=18	=18	=18	=18
1D	1A	1d	1f
2AA/	2A/	2c\	2e/
1C	1G	1c	1e
[2AA/	2A/	[2e\	[2c/
=19	=19	=19	=19
2AA/]	1F	2e\]	2c/]
1BB	.	1d	1d
.	2F/	.	.
1C	2.E/	1e	1g
.	4F/	.	.
2BB/	2G/	2d\	2g/
=20	=20	=20	=20
2AA/	1A	2c\	2f/
1BB	.	2d\	1d
.	2G#i/	2B\	.
1AA	1A	2e\	2c/
.	.	2.c\	1f
[2C/	2Gni/	.	.
.	.	4B\	.
=21	=21	=21	=21
2C/]	2E/	2c\	1e
1D	1F	2A/	.
.	.	2B\	2d/
1AA	1E	1.A	1.e
2AA/	2E/	.	.
=22	=22	=22	=22
*M2/1	*M2/1	*M2/1	*M2/1
*met(C)	*met(C)	*met(C)	*met(C)
1E	1G	0r	0r
2F\	2A/	.	.
2D\	2F/	.	.
=23	=23	=23	=23
1C	1E	2r	1g
.	.	2c\	.
2r	1D	2A/	2a/
2D\	.	2B\	2f/
=24	=24	=24	=24
2E\	1C	2c\	2e/
2C/	.	4B\	2.g/
.	.	4A/	.
1BB	1D	1G	.
.	.	.	4f/
.	.	.	4e/
.	.	.	4d/
=25	=25	=25	=25
0AAl	0El	0Al	0cl
!!LO:LB:i:g=z
=26||	=26||	=26||	=26||
*>C	*>C	*>C	*>C
*clefF4	*clefGv2	*clefGv2	*clefG2
*k[]	*k[]	*k[]	*k[]
*M2/1	*M2/1	*M2/1	*M2/1
*met(C)	*met(C)	*met(C)	*met(C)
!!section: Kyrie II
!!!OMD: Kyrie II
2D\	0r	2d\	0r
2E\	.	2c\	.
2D\	.	2d\	.
[2F\	.	4c\	.
.	.	4B\	.
=27	=27	=27	=27
2F\]	0r	2A/	2a/
2G\	.	2B\	2g/
2.F\	.	2A/	2a/
.	.	2B\	4g/
4D\	.	.	4f/
=28	=28	=28	=28
2C/	2A/	2c\	2e/
2BB/	2G/	2d\	2r
2AA/	2A/	2c\	2e/
2D\	4G/	2d\	2f/
.	4F/	.	.
=29	=29	=29	=29
2C/	2E/	2e\	2g/
2D\	2F/	2A/	4f/
.	.	.	4e/
2GG/	2G/	2B\	2d/
2r	2F/	4A/	[2f/
.	.	4G/	.
=30	=30	=30	=30
0r	2D/	3%2cV	4f/]
.	.	.	4e/
.	2F/	.	1d
.	.	3A/Z	.
.	1E	3%2GV	.
.	.	.	2c#i/
.	.	3G/Z	.
=31	=31	=31	=31
*M3/1	*M3/1	*M3/1	*M3/1
*met(3)	*met(3)	*met(3)	*met(3)
!!primary-mensuration: met(C.)
!! Tempo is that of menCDot, so forcing on the previous line.
1D	2D/	2.A/	1.d
.	2r	.	.
.	.	4G/	.
2D\	1r	2F/	.
1C	.	1E	2r
.	1r	.	1r
2C/	.	2A/	.
=32	=32	=32	=32
2.D\	1d	2.A/	1f
4C/	.	4F/	.
2BB/	2d\	2G/	2d/
1AA	1c	1.A	1e
2AA/	2c\	.	2e/
=33	=33	=33	=33
1D	1d	1r	2.f/
.	.	.	4e/
2D\	2B\	2r	2d/
1F	1.A	2.f\	1c
.	.	4e\	.
2F\	.	2c\	2r
=34	=34	=34	=34
1D	0.r	2d\	1.a
.	.	2.f\	.
2F\	.	.	.
.	.	4e\	.
2G\	.	1d	1.g
1E	.	.	.
.	.	2c#i\	.
=35	=35	=35	=35
1D	1d	2d\	1f
.	.	2f\	.
2GG/	2d\	2g\	2b-i\
2AA/	1c	1e	2a/
2C/	.	.	2.g/
2D\	2B\	[2d\	.
.	.	.	4f/
=36	=36	=36	=36
2F\	2A/	2d\]	1f
1C	1G	1c	.
.	.	.	2e/
1D	1.F	1A	1f
2D\	.	2d\	2r
=37	=37	=37	=37
1E	1r	2B\	2.g/
.	.	2e\	.
.	.	.	4a/
2G\	1r	1d	2b-i\
2F\	.	.	2a/
2D\	2r	2B\	2f/
[2C/	[2G/	2c\	[2e/
=38	=38	=38	=38
2C/]	4G/]	2.g\	2e/]
.	4A/	.	.
2GG/	2B-i\	.	2d/
.	.	4f\	.
1AA	1A	4e\	2c/
.	.	4d\	.
.	.	2c\	2e/
2D\	2F/	2d\	2f/
[2C/	[2E/	[2e\	[2g/
=39	=39	=39	=39
2C/]	2E/]	2e\]	2g/]
2D\	2F/	2A/	2f/
2GG/	1G	2B\	2d/
2C/	.	2c\	2.e/
2D\	2F/	2A/	.
.	.	.	4d/
2BB/	2D/	2G/	[2d/
=40	=40	=40	=40
1AA	1E	1A	2d/]
.	.	.	2c#i/
0Dl	0Dl	0Al	0dl
==	==	==	==
*-	*-	*-	*-
!!!RDF**kern: l=long note in original notation
!!!RDF**kern: i=editorial accidental
!!!RDF**kern: V=start of tuplet marker
!!!RDF**kern: Z=end of tuplet marker
!!!ENC:	Chris Gage 01-22-2013
!!!END:	2015/03/07/
!!!EED:	Jesse Rodin
!!!EEV:	2015/03/09/
!!!ONB:	Translated from MusicXML and edited on 2015/03/09/ by Craig Sapp
!!muse2ps: T^@{OPR}^u^@{ONM}{. }@{OTL}^C^@{COM}^i2I150v85,85,85,150Q16
